flaticon/arrows/next-1.svg

<svg xmlns="http://www.w3.org/2000/svg" width="32" height="32" viewBox="0 0 24 24">
    <path d="M20.855469 11.832031C20.832031 11.777344 20.800781 11.726562 20.757812 11.683594L13.648438 4.574219C13.472656 4.402344 13.191406 4.402344 13.019531 4.574219 12.84375 4.75 12.84375 5.03125 13.019531 5.203125L19.371094 11.554688.445312 11.554688C.199219 11.554688 0 11.753906 0 12 0 12.246094.199219 12.445312.445312 12.445312L19.371094 12.445312 13.019531 18.796875C12.84375 18.96875 12.84375 19.25 13.019531 19.425781 13.105469 19.511719 13.21875 19.554688 13.332031 19.554688 13.445312 19.554688 13.5625 19.511719 13.648438 19.425781L20.757812 12.316406C20.800781 12.273438 20.832031 12.222656 20.855469 12.167969 20.898438 12.0625 20.898438 11.9375 20.855469 11.832031zM23.554688 4.445312C23.308594 4.445312 23.109375 4.644531 23.109375 4.890625L23.109375 19.109375C23.109375 19.355469 23.308594 19.554688 23.554688 19.554688 23.800781 19.554688 24 19.355469 24 19.109375L24 4.890625C24 4.644531 23.800781 4.445312 23.554688 4.445312zM23.554688 4.445312"/>
</svg>

<svg xmlns="http://www.w3.org/2000/svg" width="32" height="32" viewBox="0 0 24 24">
    <path d="M20.855 11.832a.467.467 0 0 0-.097-.148l-7.11-7.11a.448.448 0 0 0-.628 0 .44.44 0 0 0 0 .63l6.351 6.35H.445a.445.445 0 1 0 0 .891h18.926l-6.351 6.352a.44.44 0 0 0 0 .629.45.45 0 0 0 .629 0l7.109-7.11a.454.454 0 0 0 .098-.484zm0 0M23.555 4.445c-.246 0-.446.2-.446.446v14.218a.445.445 0 1 0 .891 0V4.891c0-.246-.2-.446-.445-.446zm0 0"/>
</svg>
